X: 1
T: Paddy Fahey's
M: 6/8
L: 1/8
R: jig
K: Gmaj
|: DGA ~_B2 c | _BAG AFD | dBd cAc | BAG FDC |
DGA ~B2 d | cBG ABc | dga fdc |1 BGG {A}G2 F :|2 BGG {A}GBd ||
| g2 a _bag | fga {a}gfd | g2 a _bag | fga {a}g2 a |
gdB DGB | cBG ABc | dga fdc |1 BGG GBd :|2 BGG G2 F ||
